X: 43207
T: Witches' Coven, The
R: reel
M: 4/4
K: Eminor
E2 DE GABG|AGAB GEGA|Beed efed|BAGA B2 BG|
AGAB edGB|AGAB GEFG|DEFG ABAG|1 FGAB E2 B,D:|2 FGAB EFGA||
Beed e2 Bd|edef dBBA|Beed efed|BAGd B2 BA|
AGAB GEGB|AGAB edef|defg abag|1 fgab e2 ed:|2 fgab efga||
bggf g2 bg|agab gfef|gfef gbag|defg e2 fa|
gfed B2 GB|ADFA defg|agfe dBAG|1 FGAB efga:|2 FGAB E4||

